src/icons/svgs/24/moon.svg

<svg width="24" height="24" viewBox="0 0 24 24" fill="none" xmlns="http://www.w3.org/2000/svg">
<path d="M14.1133 16.2233C12.8742 16.456 11.6168 16.1343 10.6527 15.3373C9.68477 14.538 9.1293 13.3596 9.1293 12.1044C9.1293 10.6008 9.94336 9.2005 11.2461 8.45728C11.7113 8.19774 11.9539 7.69339 11.8676 7.16931C11.7813 6.64641 11.3867 6.24867 10.832 6.15509C8.66406 5.74175 6.41797 6.33056 4.70156 7.75773C2.98516 9.1849 2 11.2828 2 13.5132C2 17.6426 5.35977 21 9.49219 21C11.7652 21 13.8906 19.983 15.3086 18.2299C15.6443 17.8251 15.6843 17.2554 15.4133 16.8047C15.1445 16.3558 14.6211 16.1219 14.1133 16.2233ZM9.49219 19.1283C6.39453 19.1283 3.875 16.6093 3.875 13.5132C3.875 11.84 4.61367 10.267 5.90156 9.1966C6.77187 8.47404 7.82422 8.03887 8.92539 7.92813C7.87109 9.04452 7.25391 10.5341 7.25391 12.1055C7.25391 13.9199 8.05703 15.6247 9.45742 16.7809C10.3747 17.5402 11.4963 18.012 12.6813 18.1371C11.7578 18.7774 10.6484 19.1283 9.49219 19.1283ZM13.25 3.49572L13.7352 4.65695C13.759 4.70472 13.8215 4.74348 13.8749 4.74348C13.9283 4.74348 13.9908 4.70472 14.0146 4.65695L14.4998 3.49572L15.6634 3.01141C15.7109 3.02272 15.75 2.95994 15.75 2.87182C15.75 2.81859 15.7113 2.75612 15.6636 2.73237L14.5 2.24807L14.0148 1.08645C13.991 1.0386 13.9285 1 13.8751 1C13.8217 1 13.7591 1.0386 13.7354 1.08645L13.2502 2.24807L12.0859 2.76731C12.0384 2.7911 11.9996 2.85353 11.9996 2.90675C11.9996 2.95975 12.0384 3.0226 12.0859 3.04635L13.25 3.49572ZM21.8281 9.49295L19.5 8.52201L18.5281 6.19681C18.4766 6.0966 18.3672 5.99131 18.25 5.99131C18.1328 5.99131 18.0254 6.05955 17.9717 6.16191L17 8.52201L14.6707 9.49217C14.5703 9.54754 14.5 9.65283 14.5 9.76981C14.5 9.88679 14.5684 9.99402 14.6709 10.0476L17 11.0176L17.9719 13.3428C18.0273 13.4469 18.1328 13.5132 18.25 13.5132C18.3672 13.5132 18.4746 13.445 18.5283 13.3426L19.5 11.0176L21.8293 10.0474C21.9336 9.99597 22 9.88679 22 9.76981C22 9.65283 21.9336 9.54754 21.8281 9.49295Z" fill="black"/>
</svg>

<svg width="24" height="24" viewBox="0 0 24 24" xmlns="http://www.w3.org/2000/svg">
    <path d="M14.113 16.223a4.191 4.191 0 0 1-3.46-.886 4.18 4.18 0 0 1-1.524-3.233c0-1.503.814-2.903 2.117-3.647a1.23 1.23 0 0 0 .622-1.288c-.087-.523-.481-.92-1.036-1.014a7.418 7.418 0 0 0-6.13 1.603A7.466 7.466 0 0 0 2 13.513C2 17.643 5.36 21 9.492 21a7.459 7.459 0 0 0 5.817-2.77c.335-.405.375-.975.104-1.425a1.24 1.24 0 0 0-1.3-.582Zm-4.62 2.905a5.622 5.622 0 0 1-5.618-5.615c0-1.673.739-3.246 2.027-4.316a5.607 5.607 0 0 1 3.023-1.269 6.094 6.094 0 0 0-1.671 4.177c0 1.815.803 3.52 2.203 4.676a6.052 6.052 0 0 0 3.224 1.356 5.59 5.59 0 0 1-3.189.991ZM13.25 3.496l.485 1.161a.17.17 0 0 0 .14.086.17.17 0 0 0 .14-.086l.485-1.161 1.163-.485c.048.012.087-.051.087-.14a.17.17 0 0 0-.086-.139L14.5 2.248l-.485-1.162a.17.17 0 0 0-.14-.086.17.17 0 0 0-.14.086l-.485 1.162-1.164.52a.17.17 0 0 0-.086.139c0 .053.038.116.086.14l1.164.449Zm8.578 5.997L19.5 8.522l-.972-2.325c-.051-.1-.16-.206-.278-.206a.317.317 0 0 0-.278.17L17 8.523l-2.33.97c-.1.056-.17.16-.17.278 0 .117.068.224.17.278l2.33.97.972 2.325c.055.104.16.17.278.17a.317.317 0 0 0 .278-.17l.972-2.325 2.33-.97a.31.31 0 0 0-.002-.555Z"/>
</svg>
